X:1
T: The Angry Peeler
C:
R:Jig
Q:180
K:G
M:6/8
L:1/16
BcB2A2 G2E2D2|D2E2D2 G2E2D2|B2A2B2 d2B2G2|A2B2A2 A6|BcB2A2 G2E2D2|D2E2D2 G2E2D2|B2A2B2 d2B2G2|D2E2G2 G6|
BcB2A2 G2E2D2|D2E2D2 G2E2D2|B2A2B2 d2B2G2|A2B2A2 A6|BcB2A2 G2E2D2|D2E2D2 G2E2D2|B2A2B2 d2B2G2|D2E2G2 G6|
BcB2A2 B2c2d2|e2g2e2 d2B2G2|B2A2B2 d2B2G2|F2A2A2 A6|BcB2A2 B2c2d2|e2g2e2 d2B2G2|B2A2B2 G2E2D2|E2G2G2 G6|
BcB2A2 B2c2d2|e2g2e2 d2B2G2|B2A2B2 d2B2G2|F2A2A2 A6|BcB2A2 B2c2d2|e2g2e2 d2B2G2|B2A2B2 G2E2D2|E2G2G2 G6||
